src/icons/classification-other.icon.svg

<svg width="24px" height="24px" viewBox="0 0 24 24" version="1.1" xmlns="http://www.w3.org/2000/svg" xmlns:xlink="http://www.w3.org/1999/xlink">
    <path d="M12,22 C17.5228475,22 22,17.5228475 22,12 C22,6.4771525 17.5228475,2 12,2 C6.4771525,2 2,6.4771525 2,12 C2,17.5228475 6.4771525,22 12,22 Z" id="bg_icon" fill="#666666"></path>
    <path d="M15.8700658,12.2516447 C15.8700658,13.619867 15.5308422,14.6714601 14.8523849,15.4064556 C14.1739275,16.141451 13.2014866,16.5089433 11.9350329,16.5089433 C10.6685792,16.5089433 9.69613826,16.141451 9.01768092,15.4064556 C8.33922358,14.6714601 8,13.6160979 8,12.2403372 C8,10.8645765 8.34016587,9.81392564 9.02050781,9.08835321 C9.70084976,8.36278077 10.6761176,8 11.9463405,8 C13.2165634,8 14.188062,8.36560764 14.8608655,9.09683388 C15.5336691,9.82806013 15.8700658,10.8796532 15.8700658,12.2516447 Z M9.83747944,12.2516447 C9.83747944,13.1751006 10.012745,13.8705089 10.3632812,14.3378906 C10.7138175,14.8052723 11.2377295,15.0389597 11.9350329,15.0389597 C13.3334089,15.0389597 14.0325863,14.109864 14.0325863,12.2516447 C14.0325863,10.3896563 13.337178,9.45867599 11.9463405,9.45867599 C11.2490371,9.45867599 10.7232405,9.69330563 10.368935,10.162572 C10.0146295,10.6318383 9.83747944,11.3281889 9.83747944,12.2516447 Z" id="O" fill="#FFFFFF"></path>
</svg>

<svg xmlns="http://www.w3.org/2000/svg" viewBox="0 0 24 24"><path d="M12 22c5.523 0 10-4.477 10-10S17.523 2 12 2 2 6.477 2 12s4.477 10 10 10z" fill="#666"/><path d="M15.87 12.252c0 1.368-.34 2.42-1.018 3.154-.678.735-1.65 1.103-2.917 1.103-1.266 0-2.239-.368-2.917-1.103C8.339 14.671 8 13.616 8 12.24c0-1.375.34-2.426 1.02-3.152C9.7 8.363 10.677 8 11.947 8s2.242.366 2.915 1.097 1.01 1.783 1.01 3.155zm-6.033 0c0 .923.176 1.619.526 2.086.35.467.875.701 1.572.701 1.398 0 2.098-.93 2.098-2.787 0-1.862-.696-2.793-2.087-2.793-.697 0-1.223.234-1.577.704-.354.469-.532 1.165-.532 2.089z" fill="#FFF"/></svg>
